!!!!SEGMENT: pl-wn--mus-iii-63-545--002_wieniawski-henryk--fantaisie-orientale.krn
!!!cenid: 18xx:3811
!!!COM: Wieniawski, Henryk
!!!COM-rismID: pe137176
!!!CDT: 1835/07/10-1880/03/31
!!!CNT:
!!!OTL: Fantaisie orientale
!!!PDT:
!!!AGN:
!!!SMS-siglum: PL-Wn
!!!SMS-shelfmark: Mus.III.63.545
!!!SMS-shelfwork: 002 W
!!!SMS-variant:
!!!SMS-altvar:
!!!NIFC-rismSourceID:
!!!NIFC-rismChildID:
!!!NIFC-islandoraID:
!!!URL-pdf-islandora:
!!!URL-scan: https://polona.pl/item/gigue-op-23-et-fantaisie-orientale,NjkyOTMwMjM/0 @EN{Scan on Polona} @PL{Skany w portalu Polona}
!!!ONB-nifc:
!!!AIN: 1 violn
!!!key: a
**kern	**fing	**dynam
*I"Violon.	*	*
*mI"Violino	*	*
*Ivioln	*	*
*ICstr	*	*
*IGsolo	*	*
*clefG2	*	*
*k[]	*	*
*a:	*	*
*M4/4	*	*
*met(c)	*	*
*mmet(c)	*	*
*xywh-4:261,351,2416,622	*	*
=1	=1	=1
!LO:TX:a:t=6:mod=	!	!
!LO:TX:a:B:t=Moderato.	!	!
00r	.	.
=2	=2	=2
.	.	.
=3	=3	=3
.	.	.
=4	=4	=4
.	.	.
=5	=5	=5
0r	.	.
=6	=6	=6
.	.	.
=7	=7	=7
*^	*	*
*	*cue	*	*
4raa;	4g#X\	.	.
!LO:TX:b:i:t=poco più animato	!	!	!
*	*Xcue	*	*
4.bbb;\	4rcyy	o 4	p >
.	2rcyy	.	.
(16aaa\LL	.	4	] <
16ggg#X\	.	.	.
16fffn\	.	.	.
16eee\JJ	.	.	.
16ddd\LL	.	4	.
16ccc\JJ)	.	.	[
*v	*v	*	*
=8	=8	=8
(16ccc\LL	.	>
16bb\	.	.
16fff\	4	]
16ccc#X\JJ	.	<
16eee\LL	.	.
16ddd\	.	.
16bb\	.	.
16aa\JJ)	.	[
(16aa\LL	.	>
16gg#X\	.	.
16bb\	.	]
16dd\JJ	1	<
16ggn\LL	.	.
16ff\	.	.
16dd\	.	.
16b\JJ)	.	[[
=9	=9	=9
(16a\LL	.	>
16g#X\	.	]
16ff\	.	<
16cc#X\JJ	2	.
16ee\LL	.	.
16dd\	.	.
16b\	.	.
16a\JJ)	0	[
!LO:TX:a:t=Henri Wieniawski.:mod=	!	!
(16a/LL	2	>
16g#/	.	]
16b/	.	<
16d/JJ	0	.
16gn/LL	3	.
16f/	.	.
16d/	.	.
16B/JJ)	.	[[
!!LO:LB:g=original
*xywh-4:320,930,2337,388	*	*
=10	=10	=10
(12A/L	.	>
12.G#X/	.	] <
24dd/Jk)	o 2	[
[4dd\	.	>
16dd/LL]	.	]
(<16G#/	.	.
16B/	.	<
16d/JJ	2	.
16f/LL	.	.
16e/	.	.
16d#X/	.	.
16e/JJ	.	.
=11	=11	=11
16g#X\LL	.	[
16b\	.	.
16dd\	.	.
16ff\JJ)	.	.
12eem\L	.	.
12dd#X\	.	.
12ee\J	.	.
4.eee;\	o 2	>]
8r	.	.
=12||	=12||	=12||
*M2/4	*	*
!LO:TX:a:B:t=Andante.	!	!
4r	.	.
(8dd#Xv\L	1	p <
8ee\J)	.	[[
=13	=13	=13
4ee\	.	>
4ee\	.	] <
=14	=14	=14
(16ff\LL	.	.
16ee\	0	.
16ff\	1	.
16aa\JJ)	.	.
(16aa\LL	.	.
16gg#X\)	.	.
(16gg#\	.	.
16ff\JJ)	.	[
!!LO:LB:g=original
*xywh-4:265,1295,2392,301	*	*
=15	=15	=15
((32ff\LLL	.	>
32ee\	.	.
32ff\	.	.
32gg#X\J	.	.
16ff\)	.	.
16ee'\JJ)	.	.
8ee\	.	]
8r	.	.
=16	=16	=16
4r	.	.
(8ddv\L	3	<
8ee\J)	.	[
=17	=17	=17
(8dd\L	.	>
8cc\J)	.	]
((32gg\LLL	.	<
32ff\	.	.
32gg\	.	.
32aa\J	.	.
16gg\)	.	.
16ff'\JJ)	.	.
=18	=18	=18
((32ff\LLL	3	.
32ee\	.	.
32ff\	.	.
32gg\J	.	.
16ff\)	.	.
16ee'\JJ)	.	.
((32ee\LLL	.	.
32dd\	.	.
32ee\	.	.
32ff\J	.	.
16ee\)	.	.
16dd'\JJ)	.	.
=19	=19	=19
(16dd\LL	3	.
16cc\	.	.
16dd\)	.	.
16ff'\JJ	3	.
!LO:TX:b:i:t=rit.	!	!
16ee'\LL	.	.
(16dd^\	.	.
16cc^\	.	.
16b^\JJ)	.	.
!!LO:LB:g=original
*xywh-4:273,1589,2420,325	*	*
=20	=20	=20
8a/	.	mf
8r	.	.
!LO:TX:a:i:t=a tempo	!	!
(16eev\LL	.	p <
16ff\	.	.
16ee\	.	.
16dd#X\JJ)	.	[
=21	=21	=21
(8.ee\L	.	>
48dd#X\LL	3	.
48cc\	.	.
48dd#\JJJ)	.	.
8cc\	.	]
8r	.	.
=22	=22	=22
*	*	*^
(8.dd#Xu\L	.	>	<
32cc\LL	.	] <	.
32dd#\JJJ)	.	.	.
(8.ee\L	2	[ >	.
32dd#\LL	.	] <	.
32ee\JJJ)	.	[[	.
*	*	*v	*v
=23	=23	=23
(8.ff\L	.	>
32ee\LL	0	] <
32ff\JJJ)	1	.
(16gg#X\KL	.	.
8aa\	.	.
16bb\Jk)	.	[
=24	=24	=24
(16gg#X^\LL	.	>
16ff\)	.	.
(16ff^\	3	.
16ee\JJ)	.	.
(16ee\LL	.	]
16ff\	.	<
16gg#\	1	.
16aa\JJ)	1	[
=25	=25	=25
!LO:TX:b:i:t=appassionato	!	!
(8.bb\L	.	mf >
16aa\Jk)	.	] <
(16ddd\LL	.	.
16ccc\)	.	.
(16bb\	.	.
16aa\JJ)	.	.
!!LO:LB:g=original
*xywh-4:301,1910,2416,369	*	*
=26	=26	=26
(8.gg#X\L	2	[
16ff\Jk)	.	.
((32ff\LLL	3	>
32ee\	.	.
32ff\	.	.
32gg#\J	.	.
16ff\)	.	.
16ee'\JJ)	.	.
=27	=27	=27
2ee\	.	]
=28	=28	=28
!LO:TX:a:B:t=A	!	!
4r	.	.
!LO:TX:b:i:t=vigoroso	!	!
(8.ee\L 8.ccv\	2 0	f
16gg\Jk 16ee\)	.	.
=29	=29	=29
(16gg\LL 16ee\	.	.
16aa\ 16ee\	.	.
16gg\ 16ee\	.	.
16ff\JJ)	.	.
4gg\ 4ee\	.	.
=30	=30	=30
8r	.	.
(16ff\LL 16av\	.	.
16gg\JJ 16cc\)	.	.
(32aa\LLL 32ff\	3 1	.
32bb-X\J 32gg\	.	.
16aa\ 16ff\)	.	.
(16gg\ 16ee'\	0 4	.
16ff\JJ 16dd'\)	3 1	.
=31	=31	=31
(16ff\LL 16dd^\	.	.
16ee\ 16cc\)	.	.
(16ee\ 16cc^\	.	.
16dd\JJ 16g\)	.	.
(32gg/LLL 32b/ 32d/ (32G/	.	ff
32ff/	.	.
32gg/	.	.
32aa/J)	.	.
16gg'/)	.	.
16ff/JJ 16dd'/	.	.
!!LO:LB:g=original
*xywh-4:342,2254,2310,346	*	*
=32	=32	=32
(16ee/LL 16cc'/	.	.
16dd/J 16g'/)	.	.
8cc/J 8e/	.	.
(32gg/LLL 32b/ 32d/ (32G/	.	sf
32ff/	.	.
32gg/	.	.
32aa/J)	.	.
16gg'/)	.	.
16ff/JJ 16dd'/	.	.
=33	=33	=33
(8.ff\L 8.cc\	.	.
16ee\Jk 16cc\)	.	.
(16ee\LL 16ee\	20	.
16ff\ 16ee\	.	.
16ee\ 16ee\	.	.
16ff\JJ 16ee\)	.	.
=34	=34	=34
(16ee\LL 16dd\	.	.
16ee\ 16ee\	.	.
16ee\ 16dd\	.	.
16ee\JJ 16cc\)	2 0	.
(16dd/LL 16d/	.	.
16ff/ 16d/	4	.
16ee/ 16e/	4	.
16dd/JJ 16f/)	.	.
=35	=35	=35
(16dd/LL 16e/	.	.
16cc/ 16e/)	.	.
(16cc/ 16d/	.	.
16b/JJ 16d/)	.	.
!LO:TX:b:i:t=rit.	!	!
(16b/LL 16c/	1 3	.
16a/ 16c/)	.	.
(16a/ 16B/	2 4	.
16g#X/JJ 16B/)	.	.
=36	=36	=36
!LO:TX:a:i:t=a tempo	!	!
8a/ 8c/	.	.
8r	.	.
!LO:MO:mod=!LO&colon;TX&colon;i&colon;b&colon;t=sentimentale	!	!
!LO:TX:b:i:t=senti-	!	!
(8g#Xv/L	1	p <
8a/J)	.	[[
!!LO:LB:g=original
*xywh-4:342,2590,2327,318	*	*
=37	=37	=37
!LO:TX:b:i:t=-mentale:mod=	!	!
(8b\L	1	>
32dd\LL	.	.
32cc\	.	.
32b\	.	.
32cc\JJJ	.	.
8a\L)	2	]
!LO:TX:b:t=3a:mod=	!	!
(16ee\L	4	<
16dd\JJ)	.	.
=38	=38	=38
!LO:TX:b:i:t=rit.	!	!
(16dd^\LL	.	.
16cc\)	.	[
(16cc^\	4	.
16b\JJ)	.	.
!LO:TX:a:i:t=a tempo	!	!
(32b\LLL	.	.
32a\	.	.
32b\	.	.
32cc\J	.	.
16b\)	.	.
16a'\JJ	.	.
=39	=39	=39
(8.g#X/L	3	>
48f/LL	.	.
48e/	.	.
48f/JJJ)	.	.
8e/	.	]
8r	.	.
=40	=40	=40
!LO:TX:b:t=4a:dur=6q:ext=cd:problem:text with extension lines:mod=	!	!LO:HP:t=poco cresc.
(8.e/L	1	<
16f/Jk)	.	.
(8g#X/L	.	.
16f/L	.	.
16e/JJ)	.	.
=41	=41	=41
(32b/LLL	3	.
32a/	.	.
32b/	.	.
32cc/J	.	.
16b/	.	.
16a/JJ)	3	.
(32a/LLL	.	.
32g#X/	.	.
32a/	.	.
32b/J	.	.
16a/	.	.
16g#/JJ)	3	.
!!LO:PB:g=original
*xywh-4:322,2906,2332,288	*	*
=42	=42	=42
(32g#X/LLL	.	.
32f/	.	.
32g#/	.	.
32a/J	.	.
16g#/	.	.
16f/JJ)	3	.
(32f/LLL	.	.
32e/	.	.
32f/	.	.
32g#/J	.	.
16f/	.	.
16e/JJ)	3	.
=43	=43	=43
4..e/	.	>
16r	.	]
=44	=44	=44
!LO:TX:a:B:t=B	!	!
4r	.	.
(8dd#Xv\L	1	p <
8ee\J)	.	.
=45	=45	=45
4ee\	.	[
4ee\	.	.
=46	=46	=46
(16ff\LL	.	.
16ee\	0	.
16ff\	.	.
16aa\JJ)	.	.
(16aa^\LL	.	.
16gg#X\)	.	.
(16gg#^\	.	.
16ff\JJ)	.	.
=47	=47	=47
(32ff\LLL	3	>
32ee\	.	.
32ff\	.	.
32gg#X\J	.	.
16ff\	.	.
16ee\JJ)	.	.
8ee\	.	]
8r	.	.
=48	=48	=48
(8.eeu\L	4	>
48dd#X\LL	.	.
48cc\	.	.
48dd#\JJJ)	.	.
8cc\	.	]
8r	.	.
!!LO:LB:g=original
*xywh-4:345,3166,2313,408	*	*
=49	=49	=49
(8.eu/L	3	>
48d#X/LL	.	.
48c/	.	.
48d#/JJJ)	.	.
8c/	.	]
8r	.	.
=50	=50	=50
(16Au/LL	.	.
16B/	.	.
16c/	.	.
16d#X/JJ	.	.
16e/LL	.	.
16f/	.	.
16g#X/	.	.
16a/JJ)	.	.
=51	=51	=51
(16b\LL	.	.
16cc\	.	.
16dd#X\	1	.
16ee\JJ	.	.
!LO:TX:b:i:t=rit.	!	!
16ff\LL	.	.
16gg#X\	4	.
16aa\	o 4	.
!LO:N:n=2:vis=2	!	!
16eeeyy\ 16rayy\ 16ree\oJJ)	o 2	.
=52||	=52||	=52||
!LO:TX:a:B:t=Allegro moderato.	!	!
!LO:N:n=2:vis=2	!	!
4aaayy\ 4rayy\ 4rdd\o	o 1	.
4r	.	.
=53	=53	=53
!LO:TX:a:t=3:mod=	!	!
1r	.	.
=54	=54	=54
=55	=55	=55
2r	.	.
=56	=56	=56
!LO:TX:b:t=4a:dur=16q:ext=cd:problem:text with extension lines:mod=	!	!
(16fu/LL	2	p <
32e/K)	.	.
32r	.	.
(16f/	.	.
32a/JJk)	.	.
32r	.	.
(16a/LL	.	.
32g#X/K)	.	.
32r	.	.
(16g#/	.	.
32f/JJk)	.	.
32r	.	[[
!!LO:PB:g=original
*xywh-5:73,286,2367,341	*	*
=57	=57	=57
!LO:TUP:b:r=8	!	!
(24f/LL	.	>
24e/	.	.
24f/J	.	.
!LO:TUP:b	!	!
24g#X/L	.	.
24f/	.	.
24e/JJ)	.	.
8e/	.	]
8r	.	.
=58	=58	=58
(16eu/LL	2	<
32d#X/K)	.	.
32r	.	.
(16d#/	.	.
32f/JJk)	.	.
32r	.	.
(16f/LL	.	.
32e/K)	.	.
32r	.	.
(16e/	.	.
32c/JJk)	2	.
32r	.	[
=59	=59	=59
*Xtuplet	*	*
(24c/LL	.	>
24B/	.	.
24c/J	.	.
24d#X/L	.	.
24c/	.	.
24B/JJ)	.	.
8B/	.	]
8r	.	.
=60	=60	=60
(16fu/LL	2	<
32e/K)	.	.
32r	.	.
(16f/	.	.
32a/JJk)	.	.
32r	.	.
(16a/LL	.	.
32g#X/K)	.	.
32r	.	.
(16g#/	.	.
32f/JJk)	.	.
32r	.	[
!!LO:LB:g=original
*xywh-5:103,612,2342,310	*	*
=61 	=61	=61
(24f/LL	.	>
24e/	.	.
24f/J	.	.
24g#X/L	.	.
24f/	.	.
24e/JJ)	.	.
8e/	.	]
8r	.	.
=62	=62	=62
16eu/LL	.	<
16f/	1	.
16g#X/	.	.
16a/JJ	.	.
16b/LL	.	.
16a/	.	.
16g#/	.	.
16f/JJ	.	[
=63	=63	=63
8e/L	3	>
(8qf/	.	.
16e/L)	.	.
16d#X/JJ	.	.
8e/	.	]
8r	.	.
=64	=64	=64
!LO:TX:b:t=1a:mod=	!	!
(16ffu\LL	1	<
16ee\)	.	.
(16ff\	.	.
16aa\JJ)	.	.
(16aa\LL	.	.
32gg#X\K)	.	.
32r	.	.
(16gg#\	.	.
32ff\JJk)	.	.
32r	.	[
=65	=65	=65
(24ff\LL	.	>
24ee\	.	.
24ff\J	.	.
24gg#X\L	.	.
24ff\	.	.
24ee\JJ)	.	.
8ee\	.	]
8r	.	.
!!LO:LB:g=original
*xywh-5:93,903,2367,280	*	*
=66	=66	=66
(16eeu\LL	2	<
16dd#X\)	.	.
(16dd#\	.	.
16ff\JJ)	.	.
(16ff\LL	.	.
32ee\K)	.	.
32r	.	.
(16ee\	.	.
32cc\JJk)	2	[
32r	.	.
=67	=67	=67
(24cc\LL	.	>
24b\	.	.
24cc\J	.	.
24dd#X\L	.	.
24cc\	.	.
24b\JJ)	.	.
8b\	.	]
8r	.	.
=68	=68	=68
!LO:TX:b:t=1a:mod=	!	!
(16ffu\LL	1	<
16ee\)	.	.
(16ff\	.	.
16aa\JJ)	.	.
(16aa\LL	.	.
32gg#X\K)	.	.
32r	.	.
(16gg#\	.	.
32ff\JJk)	.	.
32r	.	[
=69	=69	=69
(24ff\LL	.	>
24ee\	.	.
24ff\J	.	.
24gg#X\L	.	.
24ff\	.	.
24ee\JJ)	.	.
8ee\	.	]
8r	.	.
=70	=70	=70
(16eeu\LL	0	<
16ff\)	1	.
16gg#X\	.	.
16aa\JJ	.	.
16bb\LL	.	.
16aa\	.	.
16gg#\	.	.
16ff\JJ	.	[
!!LO:LB:g=original
*xywh-5:108,1174,2327,351	*	*
=71	=71	=71
8ee\L	2	>
(16qqee/LL	.	.
16qqff/JJ	.	.
16ee\L)	.	.
16dd#X\JJ	.	.
8ee\	.	]
8r	.	.
=72	=72	=72
!LO:TX:a:B:t=C	!	!
8cc/ 8e/ 8Gu/	.	f
8r	.	.
!LO:TX:b:i:t=vigoroso	!	!
(8.ee\L 8.ccv\	.	.
16gg\Jk 16ee\)	.	.
=73	=73	=73
(16gg\LL (16ee\	.	.
16aa\ 16ee\	.	.
16gg\ 16ee\)	.	.
16ff\JJ 16ee'\)	.	.
8gg\ 8ee\	.	.
8r	.	.
=74	=74	=74
8r	.	.
(16ff\LL 16av\	.	.
16gg\JJ 16a\	.	.
32aa\LLL 32a\	.	.
32bb-X\J 32a\	.	.
16aa\ 16a\	.	.
16gg\ 16a\	.	.
16ff\JJ 16a\)	.	.
=75	=75	=75
8ee\ 8cc\	.	.
8r	.	.
(24gg/LL 24b/ 24d/ 24Gv/	.	sf
24ff/	.	.
24gg/J	.	.
24aa/L	.	.
24gg/	.	.
24ff/JJ)	.	.
=76	=76	=76
8ee\ 8cc\	.	.
8r	.	.
(24gg/LL 24b/ 24d/ 24Gv/	.	.
24ff/	.	sf
24gg/J	.	.
24aa/L	.	.
24gg/	.	.
24ff/JJ)	.	.
!!LO:LB:g=original
*xywh-5:98,1495,2352,315	*	*
=77	=77	=77
8ee\ 8cc\	.	.
8r	.	.
(24eev\LL 24ee\	20	<
24ee\ 24dd#X\	.	.
24ee\ 24ee\J	.	.
24ff\ 24ee\L	.	.
24ee\ 24ee\	.	.
24ee\JJ 24dd#\)	.	.
=78	=78	=78
(24ee\LL 24cc\	2 0	.
24ee\ 24b\	.	.
24ee\ 24cc\J	.	.
*	*below	*
24ee\ 24dd#X\L	4	.
24ee\ 24cc\	.	.
24ee\JJ 24a\)	.	.
(24ee\LL 24cc\	.	.
24ee\ 24b\	.	.
24ee\ 24cc\J	.	.
24ee\ 24dd#\L	4	.
24ee\ 24cc\	.	.
24ee\JJ 24a\)	.	.
=79	=79	=79
*tremolo	*above	*
!LO:TX:a:i:t=tremolo	!	!
32ee\LLL 32ee\	40	ff
32ee\ 32ee\	.	.
32ee\ 32ee\	.	.
32ee\ 32ee\JJ	.	.
32ee\ 32ee\LL	.	.
32ee\ 32ee\	.	.
32ee\ 32ee\	.	.
32ee\ 32ee\	.	.
32ff\ 32ee\	.	<
32ff\ 32ee\	.	.
32ff\ 32ee\	.	.
32ff\ 32ee\	.	.
32ee\ 32ee\	.	.
32ee\ 32ee\	.	.
32ee\ 32ee\	.	.
32ee\JJJ 32ee\	.	.
=80	=80	=80
32ff\LLL 32ee\	.	.
32ff\ 32ee\	.	.
32ff\ 32ee\	.	.
32ff\ 32ee\	.	.
32ff#X\ 32ee\	.	.
32ff#\ 32ee\	.	.
32ff#\ 32ee\	.	.
32ff#\ 32ee\	.	.
32gg\ 32ee\	.	.
32gg\ 32ee\	.	.
32gg\ 32ee\	.	.
32gg\ 32ee\	.	.
32ff#\ 32ee\	.	.
32ff#\ 32ee\	.	.
32ff#\ 32ee\	.	.
32ff#\JJJ 32ee\	.	.
=81	=81	=81
32gg\LLL 32ee\	.	.
32gg\ 32ee\	.	.
32gg\ 32ee\	.	.
32gg\ 32ee\	.	.
32gg#X\ 32ee\	.	.
32gg#\ 32ee\	.	.
32gg#\ 32ee\	.	.
32gg#\ 32ee\	.	.
32aa\ 32ee\	.	.
32aa\ 32ee\	.	.
32aa\ 32ee\	.	.
32aa\ 32ee\	.	.
32gg#\ 32ee\	.	.
32gg#\ 32ee\	.	.
32gg#\ 32ee\	.	.
32gg#\JJJ 32ee\	.	.
=82	=82	=82
32aa\LLL 32ee\	2 1	.
32aa\ 32ee\	.	.
32aa\ 32ee\	.	.
32aa\ 32ee\	.	.
32aa#X\ 32ee\	.	.
32aa#\ 32ee\	.	.
32aa#\ 32ee\	.	.
32aa#\ 32ee\	.	.
32bb\ 32ee\	.	.
32bb\ 32ee\	.	.
32bb\ 32ee\	.	.
32bb\ 32ee\	.	.
32eee\ 32ee\	.	.
32eee\ 32ee\	.	.
32eee\ 32ee\	.	.
32eee\JJJ 32ee\	.	.
*Xtremolo	*	*
!!LO:LB:g=original
*xywh-5:53,1771,2417,376	*	*
=83	=83	=83
!LO:TX:a:B:t=D	!	!
8cc/ 8e/ 8G/	.	fff
8r	.	.
(8.ee\L 8.ccv\	.	f
16gg\Jk 16ee\)	.	.
=84	=84	=84
(16gg\LL (16ee\	.	.
16aa\ 16ee\	.	.
16gg\ 16ee\)	.	.
16ff\JJ 16ee'\)	.	.
8gg\ 8ee\	.	.
8r	.	.
=85	=85	=85
8r	.	.
(16ff\LL 16av\	.	.
16gg\JJ 16a\	.	.
32aa\LLL 32a\	.	.
32bb-X\J 32a\	.	.
16aa\ 16a\	.	.
16gg\ 16a\	.	.
16ff\JJ 16a\)	.	.
=86	=86	=86
8ee\ 8cc\	.	.
8r	.	.
(24gg/LL 24b/ 24d/ 24Gv/	.	sf
24ff/	.	.
24gg/J	.	.
24aa/L	.	.
24gg/	.	.
24ff/JJ)	.	.
=87	=87	=87
8ee\ 8cc\	.	.
8r	.	.
(24gg/LL 24b/ 24d/ 24Gv/	.	sf
24ff/	.	.
24gg/J	.	.
24aa/L	.	.
24gg/	.	.
24ff/JJ)	.	.
!!LO:LB:g=original
*xywh-5:98,2142,2397,280	*	*
=88	=88	=88
8ee\ 8cc\	.	.
8r	.	.
(24eev\LL 24ee\	20	<
24ee\ 24dd#X\	.	.
24ee\ 24ee\J	.	.
24ff\ 24ee\L	.	.
24ee\ 24ee\	.	.
24ee\JJ 24dd#\)	.	.
=89	=89	=89
(24ee\LL 24cc\	2 0	.
24ee\ 24b\	.	.
24ee\ 24cc\J	.	.
24ee\ 24dd#X\L	4	.
24ee\ 24cc\	.	.
24ee\JJ 24a\)	.	.
(24ee\LL 24cc\	.	.
24ee\ 24b\	.	.
24ee\ 24cc\J	.	.
*	*below	*
24ee\ 24dd#\L	4	.
24ee\ 24cc\	.	.
24ee\JJ 24a\)	.	.
=90	=90	=90
*	*above	*
4eet\ 4ee\	20	ff
4eet\ 4ee\	.	.
=91	=91	=91
4eet\ 4ee\	.	.
4eet\ 4ee\	.	.
=92	=92	=92
*^	*	*
*	*	*^	*
16ff/LL	2ee\	2	0	<
16ee/	.	.	.	.
16ff/	.	.	.	.
16aa/JJ	.	.	.	.
16aa/LL	.	.	.	.
16gg#X/	.	.	.	.
16gg#/	.	.	.	.
16ff/JJ	.	.	.	[
*	*	*v	*v	*
!!LO:LB:g=original
*xywh-5:108,2418,2382,290	*	*	*
=93	=93	=93	=93
24ff/LL	2ee\	.	>
24ee/	.	.	.
24ff/J	.	.	.
24gg#X/L	.	.	.
24ff/	.	.	.
24ee/JJ	.	.	.
8ee/	.	.	]
8raa	.	.	.
=94	=94	=94	=94
*	*	*^	*
16eeu/LL	2ee\	2	0	<
16dd#X/	.	.	.	.
16dd#/	.	.	.	.
16ff/JJ	.	.	.	.
16ff/LL	.	.	.	.
16ee/	.	.	.	.
16ee/	.	.	.	.
16cc/JJ	.	2	.	[
*	*	*v	*v	*
=95	=95	=95	=95
24cc/LL	2ee\	.	>
24b/	.	.	.
24cc/J	.	.	.
24dd#X/L	.	4	.
24cc/	.	.	.
24b/JJ	.	.	.
8b/	.	.	.
8raa	.	.	]
=96	=96	=96	=96
16ffu/LL	2ee\	2	<
16ee/	.	.	.
16ff/	.	.	.
16aa/JJ	.	.	.
16aa/LL	.	.	.
16gg#X/	.	.	.
16gg#/	.	.	.
16ff/JJ	.	.	[
=97	=97	=97	=97
24ff/LL	2ee\	.	>
24ee/	.	.	.
24ff/J	.	.	.
24gg#X/L	.	.	.
24ff/	.	.	.
24ee/JJ	.	.	.
8ee/	.	.	.
8raa	.	.	]
!!LO:LB:g=original
*xywh-5:67,2627,2412,496	*	*	*
=98	=98	=98	=98
*	*	*^	*
16eeu/LL	2ee\	1	0	<
16ff/	.	1	.	.
16gg#X/	.	.	.	.
16aa/JJ	.	.	.	.
16bb/LL	.	.	.	.
16aa/	.	.	.	.
16gg#/	.	.	.	.
16ff/JJ	.	.	.	.
*	*	*v	*v	*
=99	=99	=99	=99
16ee/LL	2ee\	2	.
16ff/	.	.	[
16dd/	.	.	.
16ee/JJ	.	.	.
16cc/LL	.	2	.
16dd/	.	.	.
16b/	.	.	.
16ee/JJ	.	.	.
*v	*v	*	*
=100	=100	=100
!LO:TX:a:B:t=E	!	!
!LO:TX:t=P:problem:diminuendolike accent	!	!
8aa^<\L	1	.
16bb\L	.	<
16ccc\JJ	.	.
16ddd#X\LL 16a^\	.	[
16ccc\ 16a\	.	.
16bb\ 16a\	.	.
16aa\JJ 16a\	.	.
=101	=101	=101
16ddd#X\LL 16a^\	.	.
16ccc\ 16a\	.	.
16bb\ 16a\	.	.
16aa\JJ 16a\	.	.
16ddd#\LL 16a^\	.	.
16ccc\ 16a\	.	.
16bb\ 16a\	.	.
16aa\JJ 16a\	.	.
=102	=102	=102
16ddd#X\LL 16a^\	.	.
16ccc\ 16a\	.	.
16bb\ 16a\	.	.
16aa\JJ 16a\	.	.
16ddd#\LL 16a^\	.	.
16ccc\ 16a\	.	.
16bb\ 16a\	.	.
16aa\JJ 16a\	.	.
=103	=103	=103
8eeee\L	o 3	.
8aa\J 8cc\ 8eu\	.	<
8gg#X\L 8b\ 8eu\	.	.
8bb\J 8dd\ 8eu\	.	[
!!LO:LB:g=original
*xywh-5:108,3054,2377,521	*	*
=104	=104	=104
!LO:TX:t=P:problem:diminuendolike accent	!	!
8aa/L 8cc/ 8e/ 8A^u/	.	.
16bb/L	.	<
16ccc/JJ	.	.
16ddd#X\LL 16a^\	.	[
16ccc\ 16a\	.	.
16bb\m 16a\	.	.
16aa\JJ 16a\	.	.
=105	=105	=105
16ddd#X\LL 16a^\	.	.
16ccc\ 16a\	.	.
16bb\ 16a\	.	.
16aa\JJ 16a\	.	.
16ddd#\LL 16a^\	.	.
16ccc\ 16a\	.	.
16bb\m 16a\	.	.
16aa\JJ 16a\	.	.
=106	=106	=106
16ddd#X\LL 16a^\	.	.
16ccc\ 16a\	.	.
16bb\ 16a\	.	.
16aa\JJ 16a\	.	.
16ddd#\LL 16a^\	.	.
16ccc\ 16a\	.	.
16bb\m 16a\	.	.
16aa\JJ 16a\	.	.
=107	=107	=107
8eeee\L	o 3	.
8aa\J 8cc\ 8eu\	.	<
8gg#X\L 8b\ 8eu\	.	.
8bb\J 8dd\ 8eu\	.	[
=108	=108	=108
!LO:TX:t=P:problem:diminuendolike accent	!	!
2aa\ 2a^<T\	1	.
=109	=109	=109
2aa\ 2aT\	.	.
=110	=110	=110
2aa\ 2aT\	.	.
=111	=111	=111
(2aa\ 2aT\	.	<
16qqgg#X/LL	1	[
16qqaa/JJ)	1	[[
=112	=112	=112
!LO:N:n=2:vis=2	!	!
8aaaayy\ 8raa`^<\ 8rddd\oy	.	.
8r	.	.
4r	.	.
==	==	==
*-	*-	*-
!!!RDF**kern: > = above
!!!RDF**kern: < = below
!!!filter-modern: autostem -r | tie -s | shed -e "s/TX(.*):t=P:/tx$1:t=P:/LG" | shed -e "s/TUP/tup/L; s/^(X)?tuplet/$1TUPLET/I" | modori -m
!!!ENC: Mateusz Solarz
!!!END: 2022-05-12
!!!EED: Andrzej Borzym
!!!EEV: 2022-05-23
!!!ENC-modern: Leszek Kubiak
!!!END-modern: 2022-07-20
!!!IIIF: https://polona.pl/iiif/item/NjkyOTMwMjM/manifest.json
!!!ENC-iiif: Konrad Tyszka
!!!END-iiif: 2022-08-25
!!!YEC: Copyright 2022 Narodowy Instytut Fryderyka Chopina (https://polishscores.org)
!!!YEM: License CC-BY-4.0 (https://creativecommons.org/licenses/by/4.0)
